assets/images/vector/icons/accessibility_icon.svg

<svg fill="none" height="60" viewBox="0 0 52 60" width="52" xmlns="http://www.w3.org/2000/svg"><g stroke="#111" stroke-linecap="round" stroke-linejoin="round" stroke-width="10"><path d="m25.834 14.1667c2.7614 0 5-2.2385 5-4.99995 0-2.76143-2.2386-5-5-5s-5 2.23857-5 5c0 2.76145 2.2386 4.99995 5 4.99995z"/><path d="m20 56.6668v-34.2"/><path d="m31.666 22.4668v34.2"/><path d="m5 20.8335c5.8367 1 12.8667 1.77 20.8333 1.77 5.9234 0 12.98-.4267 20.8334-1.77"/><path d="m20 39.1667h11.6667"/></g></svg>

<svg width="52" height="60" viewBox="0 0 52 60" fill="none" xmlns="http://www.w3.org/2000/svg">
<path d="M25.834 14.1667C28.5954 14.1667 30.834 11.9282 30.834 9.16675C30.834 6.40532 28.5954 4.16675 25.834 4.16675C23.0726 4.16675 20.834 6.40532 20.834 9.16675C20.834 11.9282 23.0726 14.1667 25.834 14.1667Z" stroke="#111111" stroke-width="10" stroke-linecap="round" stroke-linejoin="round"/>
<path d="M20 56.6668V22.4668" stroke="#111111" stroke-width="10" stroke-linecap="round" stroke-linejoin="round"/>
<path d="M31.666 22.4668V56.6668" stroke="#111111" stroke-width="10" stroke-linecap="round" stroke-linejoin="round"/>
<path d="M5 20.8335C10.8367 21.8335 17.8667 22.6035 25.8333 22.6035C31.7567 22.6035 38.8133 22.1768 46.6667 20.8335" stroke="#111111" stroke-width="10" stroke-linecap="round" stroke-linejoin="round"/>
<path d="M20 39.1667H31.6667" stroke="#111111" stroke-width="10" stroke-linecap="round" stroke-linejoin="round"/>
</svg>
